(Projekt Brett_2___Version_3)
(Erstellt mit Estlcam Version 11 Build 11,245)
(Laufzeit ca. 00:27:03 Stunden)

(Benötigte Werkzeuge:)
(Fräser 4mm HSS-AI)

M03 S22000
G00 Z5.0000


(Nr. 1 Tasche parallel: Ausschnitt 1)
G00 X284.9520 Y74.9880
G00 Z0.5000
G01 Z-2.0000 F700 S22000
G01 Y147.0240 F1400
G01 X288.0480
G01 Y2.9520
G01 X284.9520
G01 Y74.9880
G01 X284.0000
G01 Y148.0000
G01 X283.4142 Y148.5858
G01 X284.0000 Y148.0000
G01 X289.0001
G01 X289.5858 Y148.5858
G01 X289.0001 Y148.0000
G01 X289.0037 Y75.0000
G01 X289.0001 Y2.0000
G01 X289.5858 Y1.4142
G01 X289.0001 Y2.0000
G01 X284.0000
G01 X283.4142 Y1.4142
G01 X284.0000 Y2.0000
G01 Y74.9880
G00 Z5.0000
G00 X284.9520
G00 Z-1.5000
G01 Z-4.0000 F700
G01 Y147.0240 F1400
G01 X288.0480
G01 Y2.9520
G01 X284.9520
G01 Y74.9880
G01 X284.0000
G01 Y148.0000
G01 X283.4142 Y148.5858
G01 X284.0000 Y148.0000
G01 X289.0001
G01 X289.5858 Y148.5858
G01 X289.0001 Y148.0000
G01 X289.0037 Y75.0000
G01 X289.0001 Y2.0000
G01 X289.5858 Y1.4142
G01 X289.0001 Y2.0000
G01 X284.0000
G01 X283.4142 Y1.4142
G01 X284.0000 Y2.0000
G01 Y74.9880
G00 Z5.0000
G00 X284.9520
G00 Z-3.5000
G01 Z-6.0000 F700
G01 Y147.0240 F1400
G01 X288.0480
G01 Y2.9520
G01 X284.9520
G01 Y74.9880
G01 X284.0000
G01 Y148.0000
G01 X283.4142 Y148.5858
G01 X284.0000 Y148.0000
G01 X289.0001
G01 X289.5858 Y148.5858
G01 X289.0001 Y148.0000
G01 X289.0037 Y75.0000
G01 X289.0001 Y2.0000
G01 X289.5858 Y1.4142
G01 X289.0001 Y2.0000
G01 X284.0000
G01 X283.4142 Y1.4142
G01 X284.0000 Y2.0000
G01 Y74.9880
G00 Z5.0000
G00 X284.9520
G00 Z-5.5000
G01 Z-8.0000 F700
G01 Y147.0240 F1400
G01 X288.0480
G01 Y2.9520
G01 X284.9520
G01 Y74.9880
G01 X284.0000
G01 Y148.0000
G01 X283.4142 Y148.5858
G01 X284.0000 Y148.0000
G01 X289.0001
G01 X289.5858 Y148.5858
G01 X289.0001 Y148.0000
G01 X289.0037 Y75.0000
G01 X289.0001 Y2.0000
G01 X289.5858 Y1.4142
G01 X289.0001 Y2.0000
G01 X284.0000
G01 X283.4142 Y1.4142
G01 X284.0000 Y2.0000
G01 Y74.9880
G00 Z5.0000


(Nr. 2 Tasche linear: Ausschnitt 2)


(Nr. 3 Ausschnitt: Ausschnitt 2)
G00 X298.0000 Y8.5000 Z5.0000
G00 Z0.5000
G01 Z0.0000 F700
G01 Z-2.0000
G01 X2.0000 F1400
G01 X1.4142 Y7.9142
G01 X2.0000 Y8.5000
G01 Y9.5000
G01 X1.4142 Y10.0858
G01 X2.0000 Y9.5000
G01 X298.0000
G01 X298.5858 Y10.0858
G01 X298.0000 Y9.5000
G01 Y8.5000
G01 X298.5858 Y7.9142
G01 X298.0000 Y8.5000
G01 Z-4.0000 F700
G01 X2.0000 F1400
G01 X1.4142 Y7.9142
G01 X2.0000 Y8.5000
G01 Y9.5000
G01 X1.4142 Y10.0858
G01 X2.0000 Y9.5000
G01 X298.0000
G01 X298.5858 Y10.0858
G01 X298.0000 Y9.5000
G01 Y8.5000
G01 X298.5858 Y7.9142
G01 X298.0000 Y8.5000
G01 Z-6.0000 F700
G01 X2.0000 F1400
G01 X1.4142 Y7.9142
G01 X2.0000 Y8.5000
G01 Y9.5000
G01 X1.4142 Y10.0858
G01 X2.0000 Y9.5000
G01 X298.0000
G01 X298.5858 Y10.0858
G01 X298.0000 Y9.5000
G01 Y8.5000
G01 X298.5858 Y7.9142
G01 X298.0000 Y8.5000
G01 Z-8.0000 F700
G01 X2.0000 F1400
G01 X1.4142 Y7.9142
G01 X2.0000 Y8.5000
G01 Y9.5000
G01 X1.4142 Y10.0858
G01 X2.0000 Y9.5000
G01 X298.0000
G01 X298.5858 Y10.0858
G01 X298.0000 Y9.5000
G01 Y8.5000
G01 X298.5858 Y7.9142
G01 X298.0000 Y8.5000
G01 Z-10.0000 F700
G01 X2.0000 F1400
G01 X1.4142 Y7.9142
G01 X2.0000 Y8.5000
G01 Y9.5000
G01 X1.4142 Y10.0858
G01 X2.0000 Y9.5000
G01 X298.0000
G01 X298.5858 Y10.0858
G01 X298.0000 Y9.5000
G01 Y8.5000
G01 X298.5858 Y7.9142
G01 X298.0000 Y8.5000
G00 Z5.0000


(Nr. 4 Teil: Teil 1)
G00 X205.5000 Y-2.0000 Z5.0000
G00 Z0.5000
G01 Z0.0000 F700
G01 Z-2.0000
G01 X300.0000 F1400
G03 X302.0000 Y0.0000 I0.0000 J2.0000
G01 Y44.5000
G01 Y55.5000
G01 Y94.5000
G01 Y105.5000
G01 Y150.0000
G03 X300.0000 Y152.0000 I-2.0000 J0.0000
G01 X205.5000
G01 X194.5000
G01 X105.5000
G01 X94.5000
G01 X0.0000
G03 X-2.0000 Y150.0000 I0.0000 J-2.0000
G01 Y105.5000
G01 Y94.5000
G01 Y55.5000
G01 Y44.5000
G01 Y0.0000
G03 X0.0000 Y-2.0000 I2.0000 J0.0000
G01 X94.5000
G01 X105.5000
G01 X194.5000
G01 X205.5000
G01 Z-4.0000 F700
G01 X300.0000 F1400
G03 X302.0000 Y0.0000 I0.0000 J2.0000
G01 Y44.5000
G01 Y55.5000
G01 Y94.5000
G01 Y105.5000
G01 Y150.0000
G03 X300.0000 Y152.0000 I-2.0000 J0.0000
G01 X205.5000
G01 X194.5000
G01 X105.5000
G01 X94.5000
G01 X0.0000
G03 X-2.0000 Y150.0000 I0.0000 J-2.0000
G01 Y105.5000
G01 Y94.5000
G01 Y55.5000
G01 Y44.5000
G01 Y0.0000
G03 X0.0000 Y-2.0000 I2.0000 J0.0000
G01 X94.5000
G01 X105.5000
G01 X194.5000
G01 X205.5000
G01 Z-6.0000 F700
G01 X300.0000 F1400
G03 X302.0000 Y0.0000 I0.0000 J2.0000
G01 Y44.5000
G01 Y55.5000
G01 Y94.5000
G01 Y105.5000
G01 Y150.0000
G03 X300.0000 Y152.0000 I-2.0000 J0.0000
G01 X205.5000
G01 X194.5000
G01 X105.5000
G01 X94.5000
G01 X0.0000
G03 X-2.0000 Y150.0000 I0.0000 J-2.0000
G01 Y105.5000
G01 Y94.5000
G01 Y55.5000
G01 Y44.5000
G01 Y0.0000
G03 X0.0000 Y-2.0000 I2.0000 J0.0000
G01 X94.5000
G01 X105.5000
G01 X194.5000
G01 X205.5000
G01 Z-8.0000 F700
G01 X300.0000 F1400
G03 X302.0000 Y0.0000 I0.0000 J2.0000
G01 Y44.5000
G01 Y55.5000
G01 Y94.5000
G01 Y105.5000
G01 Y150.0000
G03 X300.0000 Y152.0000 I-2.0000 J0.0000
G01 X205.5000
G01 X194.5000
G01 X105.5000
G01 X94.5000
G01 X0.0000
G03 X-2.0000 Y150.0000 I0.0000 J-2.0000
G01 Y105.5000
G01 Y94.5000
G01 Y55.5000
G01 Y44.5000
G01 Y0.0000
G03 X0.0000 Y-2.0000 I2.0000 J0.0000
G01 X94.5000
G01 X105.5000
G01 X194.5000
G01 X205.5000
G01 Z-10.0000 F700
G01 X300.0000 F1400
G03 X302.0000 Y0.0000 I0.0000 J2.0000
G01 Y44.5000
G01 Y55.5000
G01 Y94.5000
G01 Y105.5000
G01 Y150.0000
G03 X300.0000 Y152.0000 I-2.0000 J0.0000
G01 X205.5000
G01 X194.5000
G01 X105.5000
G01 X94.5000
G01 X0.0000
G03 X-2.0000 Y150.0000 I0.0000 J-2.0000
G01 Y105.5000
G01 Y94.5000
G01 Y55.5000
G01 Y44.5000
G01 Y0.0000
G03 X0.0000 Y-2.0000 I2.0000 J0.0000
G01 X94.5000
G01 X105.5000
G01 X194.5000
G01 X205.5000
G01 Z-12.0000 F700
G01 X300.0000 F1400
G03 X302.0000 Y0.0000 I0.0000 J2.0000
G01 Y44.5000
G01 Y55.5000
G01 Y94.5000
G01 Y105.5000
G01 Y150.0000
G03 X300.0000 Y152.0000 I-2.0000 J0.0000
G01 X205.5000
G01 X194.5000
G01 X105.5000
G01 X94.5000
G01 X0.0000
G03 X-2.0000 Y150.0000 I0.0000 J-2.0000
G01 Y105.5000
G01 Y94.5000
G01 Y55.5000
G01 Y44.5000
G01 Y0.0000
G03 X0.0000 Y-2.0000 I2.0000 J0.0000
G01 X94.5000
G01 X105.5000
G01 X194.5000
G01 X205.5000
G01 Z-14.0000 F700
G01 X300.0000 F1400
G03 X302.0000 Y0.0000 I0.0000 J2.0000
G01 Y44.5000
G00 Z-13.5000
G01 Y55.5000
G01 Z-14.0000 F700
G01 Y94.5000 F1400
G00 Z-13.5000
G01 Y105.5000
G01 Z-14.0000 F700
G01 Y150.0000 F1400
G03 X300.0000 Y152.0000 I-2.0000 J0.0000
G01 X205.5000
G00 Z-13.5000
G01 X194.5000
G01 Z-14.0000 F700
G01 X105.5000 F1400
G00 Z-13.5000
G01 X94.5000
G01 Z-14.0000 F700
G01 X0.0000 F1400
G03 X-2.0000 Y150.0000 I0.0000 J-2.0000
G01 Y105.5000
G00 Z-13.5000
G01 Y94.5000
G01 Z-14.0000 F700
G01 Y55.5000 F1400
G00 Z-13.5000
G01 Y44.5000
G01 Z-14.0000 F700
G01 Y0.0000 F1400
G03 X0.0000 Y-2.0000 I2.0000 J0.0000
G01 X94.5000
G00 Z-13.5000
G01 X105.5000
G01 Z-14.0000 F700
G01 X194.5000 F1400
G00 Z-13.5000
G01 X205.5000
G01 Z-14.0000 F700
G01 Z-16.0000
G01 X300.0000 F1400
G03 X302.0000 Y0.0000 I0.0000 J2.0000
G01 Y44.5000
G00 Z-13.5000
G01 Y55.5000
G01 Z-14.0000 F700
G01 Z-16.0000
G01 Y94.5000 F1400
G00 Z-13.5000
G01 Y105.5000
G01 Z-14.0000 F700
G01 Z-16.0000
G01 Y150.0000 F1400
G03 X300.0000 Y152.0000 I-2.0000 J0.0000
G01 X205.5000
G00 Z-13.5000
G01 X194.5000
G01 Z-14.0000 F700
G01 Z-16.0000
G01 X105.5000 F1400
G00 Z-13.5000
G01 X94.5000
G01 Z-14.0000 F700
G01 Z-16.0000
G01 X0.0000 F1400
G03 X-2.0000 Y150.0000 I0.0000 J-2.0000
G01 Y105.5000
G00 Z-13.5000
G01 Y94.5000
G01 Z-14.0000 F700
G01 Z-16.0000
G01 Y55.5000 F1400
G00 Z-13.5000
G01 Y44.5000
G01 Z-14.0000 F700
G01 Z-16.0000
G01 Y0.0000 F1400
G03 X0.0000 Y-2.0000 I2.0000 J0.0000
G01 X94.5000
G00 Z-13.5000
G01 X105.5000
G01 Z-14.0000 F700
G01 Z-16.0000
G01 X194.5000 F1400
G00 Z-13.5000
G01 X205.5000
G00 Z-15.5000
G01 Z-16.0000 F700
G01 Z-18.0000
G01 X300.0000 F1400
G03 X302.0000 Y0.0000 I0.0000 J2.0000
G01 Y44.5000
G00 Z-13.5000
G01 Y55.5000
G00 Z-15.5000
G01 Z-16.0000 F700
G01 Z-18.0000
G01 Y94.5000 F1400
G00 Z-13.5000
G01 Y105.5000
G00 Z-15.5000
G01 Z-16.0000 F700
G01 Z-18.0000
G01 Y150.0000 F1400
G03 X300.0000 Y152.0000 I-2.0000 J0.0000
G01 X205.5000
G00 Z-13.5000
G01 X194.5000
G00 Z-15.5000
G01 Z-16.0000 F700
G01 Z-18.0000
G01 X105.5000 F1400
G00 Z-13.5000
G01 X94.5000
G00 Z-15.5000
G01 Z-16.0000 F700
G01 Z-18.0000
G01 X0.0000 F1400
G03 X-2.0000 Y150.0000 I0.0000 J-2.0000
G01 Y105.5000
G00 Z-13.5000
G01 Y94.5000
G00 Z-15.5000
G01 Z-16.0000 F700
G01 Z-18.0000
G01 Y55.5000 F1400
G00 Z-13.5000
G01 Y44.5000
G00 Z-15.5000
G01 Z-16.0000 F700
G01 Z-18.0000
G01 Y0.0000 F1400
G03 X0.0000 Y-2.0000 I2.0000 J0.0000
G01 X94.5000
G00 Z-13.5000
G01 X105.5000
G00 Z-15.5000
G01 Z-16.0000 F700
G01 Z-18.0000
G01 X194.5000 F1400
G00 Z-13.5000
G01 X205.5000
G00 Z-17.5000
G01 Z-18.0000 F700
G01 Z-18.5000
G01 X300.0000 F1400
G03 X302.0000 Y0.0000 I0.0000 J2.0000
G01 Y44.5000
G00 Z-13.5000
G01 Y55.5000
G00 Z-17.5000
G01 Z-18.0000 F700
G01 Z-18.5000
G01 Y94.5000 F1400
G00 Z-13.5000
G01 Y105.5000
G00 Z-17.5000
G01 Z-18.0000 F700
G01 Z-18.5000
G01 Y150.0000 F1400
G03 X300.0000 Y152.0000 I-2.0000 J0.0000
G01 X205.5000
G00 Z-13.5000
G01 X194.5000
G00 Z-17.5000
G01 Z-18.0000 F700
G01 Z-18.5000
G01 X105.5000 F1400
G00 Z-13.5000
G01 X94.5000
G00 Z-17.5000
G01 Z-18.0000 F700
G01 Z-18.5000
G01 X0.0000 F1400
G03 X-2.0000 Y150.0000 I0.0000 J-2.0000
G01 Y105.5000
G00 Z-13.5000
G01 Y94.5000
G00 Z-17.5000
G01 Z-18.0000 F700
G01 Z-18.5000
G01 Y55.5000 F1400
G00 Z-13.5000
G01 Y44.5000
G00 Z-17.5000
G01 Z-18.0000 F700
G01 Z-18.5000
G01 Y0.0000 F1400
G03 X0.0000 Y-2.0000 I2.0000 J0.0000
G01 X94.5000
G00 Z-13.5000
G01 X105.5000
G00 Z-17.5000
G01 Z-18.0000 F700
G01 Z-18.5000
G01 X194.5000 F1400
G00 Z-13.5000
G01 X205.5000
G00 Z5.0000


(Nr. 5 Tasche parallel: Ausschnitt 3)
G00 X324.8957 Y58.4077 Z5.0000
G00 Z0.5000
G01 Z-2.0000 F700
G01 Y147.0240 F1400
G01 X328.0277
G01 Y2.9520
G01 X324.8957
G01 Y58.4077
G01 X323.9446 Y58.3885
G01 X323.9437 Y75.0000
G01 X323.9474 Y148.0000
G01 X323.3617 Y148.5858
G01 X323.9474 Y148.0000
G01 X328.9475
G01 X329.5333 Y148.5858
G01 X328.9475 Y148.0000
G01 Y2.0000
G01 X329.5333 Y1.4142
G01 X328.9475 Y2.0000
G01 X323.9474
G01 X323.3617 Y1.4142
G01 X323.9474 Y2.0000
G01 X323.9446 Y58.3885
G00 Z5.0000
G00 X324.8957 Y58.3915
G00 Z-1.5000
G01 Z-4.0000 F700
G01 Y147.0240 F1400
G01 X328.0277
G01 Y2.9520
G01 X324.8957
G01 Y58.3915
G01 X323.9446 Y58.3723
G01 X323.9437 Y75.0000
G01 X323.9474 Y148.0000
G01 X323.3617 Y148.5858
G01 X323.9474 Y148.0000
G01 X328.9475
G01 X329.5333 Y148.5858
G01 X328.9475 Y148.0000
G01 Y2.0000
G01 X329.5333 Y1.4142
G01 X328.9475 Y2.0000
G01 X323.9474
G01 X323.3617 Y1.4142
G01 X323.9474 Y2.0000
G01 X323.9446 Y58.3723
G00 Z5.0000
G00 X324.8957 Y58.3753
G00 Z-3.5000
G01 Z-6.0000 F700
G01 Y147.0240 F1400
G01 X328.0277
G01 Y2.9520
G01 X324.8957
G01 Y58.3753
G01 X323.9446 Y58.3561
G01 X323.9437 Y75.0000
G01 X323.9474 Y148.0000
G01 X323.3617 Y148.5858
G01 X323.9474 Y148.0000
G01 X328.9475
G01 X329.5333 Y148.5858
G01 X328.9475 Y148.0000
G01 Y2.0000
G01 X329.5333 Y1.4142
G01 X328.9475 Y2.0000
G01 X323.9474
G01 X323.3617 Y1.4142
G01 X323.9474 Y2.0000
G01 X323.9446 Y58.3561
G00 Z5.0000
G00 X324.8957 Y58.3592
G00 Z-5.5000
G01 Z-8.0000 F700
G01 Y147.0240 F1400
G01 X328.0277
G01 Y2.9520
G01 X324.8957
G01 Y58.3592
G01 X323.9446 Y58.3400
G01 X323.9437 Y75.0000
G01 X323.9474 Y148.0000
G01 X323.3617 Y148.5858
G01 X323.9474 Y148.0000
G01 X328.9475
G01 X329.5333 Y148.5858
G01 X328.9475 Y148.0000
G01 Y2.0000
G01 X329.5333 Y1.4142
G01 X328.9475 Y2.0000
G01 X323.9474
G01 X323.3617 Y1.4142
G01 X323.9474 Y2.0000
G01 X323.9446 Y58.3400
G00 Z5.0000


(Nr. 6 Tasche linear: Ausschnitt 4)


(Nr. 7 Ausschnitt: Ausschnitt 4)
G00 X330.9575 Y8.5000 Z5.0000
G00 Z0.5000
G01 Z0.0000 F700
G01 Z-2.0000
G01 X314.9475 F1400
G01 X314.3617 Y7.9142
G01 X314.9475 Y8.5000
G01 Y9.5000
G01 X314.3617 Y10.0858
G01 X314.9475 Y9.5000
G01 X610.9475
G01 X611.5333 Y10.0858
G01 X610.9475 Y9.5000
G01 Y8.5000
G01 X611.5333 Y7.9142
G01 X610.9475 Y8.5000
G01 X330.9575
G01 Z-4.0000 F700
G01 X314.9475 F1400
G01 X314.3617 Y7.9142
G01 X314.9475 Y8.5000
G01 Y9.5000
G01 X314.3617 Y10.0858
G01 X314.9475 Y9.5000
G01 X610.9475
G01 X611.5333 Y10.0858
G01 X610.9475 Y9.5000
G01 Y8.5000
G01 X611.5333 Y7.9142
G01 X610.9475 Y8.5000
G01 X330.9575
G01 Z-6.0000 F700
G01 X314.9475 F1400
G01 X314.3617 Y7.9142
G01 X314.9475 Y8.5000
G01 Y9.5000
G01 X314.3617 Y10.0858
G01 X314.9475 Y9.5000
G01 X610.9475
G01 X611.5333 Y10.0858
G01 X610.9475 Y9.5000
G01 Y8.5000
G01 X611.5333 Y7.9142
G01 X610.9475 Y8.5000
G01 X330.9575
G01 Z-8.0000 F700
G01 X314.9475 F1400
G01 X314.3617 Y7.9142
G01 X314.9475 Y8.5000
G01 Y9.5000
G01 X314.3617 Y10.0858
G01 X314.9475 Y9.5000
G01 X610.9475
G01 X611.5333 Y10.0858
G01 X610.9475 Y9.5000
G01 Y8.5000
G01 X611.5333 Y7.9142
G01 X610.9475 Y8.5000
G01 X330.9575
G01 Z-10.0000 F700
G01 X314.9475 F1400
G01 X314.3617 Y7.9142
G01 X314.9475 Y8.5000
G01 Y9.5000
G01 X314.3617 Y10.0858
G01 X314.9475 Y9.5000
G01 X610.9475
G01 X611.5333 Y10.0858
G01 X610.9475 Y9.5000
G01 Y8.5000
G01 X611.5333 Y7.9142
G01 X610.9475 Y8.5000
G01 X330.9575
G00 Z5.0000


(Nr. 8 Teil: Teil 2)
G00 X310.9475 Y44.5000 Z5.0000
G00 Z0.5000
G01 Z0.0000 F700
G01 Z-2.0000
G01 Y0.0000 F1400
G03 X312.9475 Y-2.0000 I2.0000 J0.0000
G01 X407.4475
G01 X418.4475
G01 X507.4475
G01 X518.4475
G01 X612.9475
G03 X614.9475 Y0.0000 I0.0000 J2.0000
G01 Y44.5000
G01 Y55.5000
G01 Y94.5000
G01 Y105.5000
G01 Y150.0000
G03 X612.9475 Y152.0000 I-2.0000 J0.0000
G01 X518.4475
G01 X507.4475
G01 X418.4475
G01 X407.4475
G01 X312.9475
G03 X310.9475 Y150.0000 I0.0000 J-2.0000
G01 Y105.5000
G01 Y94.5000
G01 Y55.5000
G01 Y44.5000
G01 Z-4.0000 F700
G01 Y0.0000 F1400
G03 X312.9475 Y-2.0000 I2.0000 J0.0000
G01 X407.4475
G01 X418.4475
G01 X507.4475
G01 X518.4475
G01 X612.9475
G03 X614.9475 Y0.0000 I0.0000 J2.0000
G01 Y44.5000
G01 Y55.5000
G01 Y94.5000
G01 Y105.5000
G01 Y150.0000
G03 X612.9475 Y152.0000 I-2.0000 J0.0000
G01 X518.4475
G01 X507.4475
G01 X418.4475
G01 X407.4475
G01 X312.9475
G03 X310.9475 Y150.0000 I0.0000 J-2.0000
G01 Y105.5000
G01 Y94.5000
G01 Y55.5000
G01 Y44.5000
G01 Z-6.0000 F700
G01 Y0.0000 F1400
G03 X312.9475 Y-2.0000 I2.0000 J0.0000
G01 X407.4475
G01 X418.4475
G01 X507.4475
G01 X518.4475
G01 X612.9475
G03 X614.9475 Y0.0000 I0.0000 J2.0000
G01 Y44.5000
G01 Y55.5000
G01 Y94.5000
G01 Y105.5000
G01 Y150.0000
G03 X612.9475 Y152.0000 I-2.0000 J0.0000
G01 X518.4475
G01 X507.4475
G01 X418.4475
G01 X407.4475
G01 X312.9475
G03 X310.9475 Y150.0000 I0.0000 J-2.0000
G01 Y105.5000
G01 Y94.5000
G01 Y55.5000
G01 Y44.5000
G01 Z-8.0000 F700
G01 Y0.0000 F1400
G03 X312.9475 Y-2.0000 I2.0000 J0.0000
G01 X407.4475
G01 X418.4475
G01 X507.4475
G01 X518.4475
G01 X612.9475
G03 X614.9475 Y0.0000 I0.0000 J2.0000
G01 Y44.5000
G01 Y55.5000
G01 Y94.5000
G01 Y105.5000
G01 Y150.0000
G03 X612.9475 Y152.0000 I-2.0000 J0.0000
G01 X518.4475
G01 X507.4475
G01 X418.4475
G01 X407.4475
G01 X312.9475
G03 X310.9475 Y150.0000 I0.0000 J-2.0000
G01 Y105.5000
G01 Y94.5000
G01 Y55.5000
G01 Y44.5000
G01 Z-10.0000 F700
G01 Y0.0000 F1400
G03 X312.9475 Y-2.0000 I2.0000 J0.0000
G01 X407.4475
G01 X418.4475
G01 X507.4475
G01 X518.4475
G01 X612.9475
G03 X614.9475 Y0.0000 I0.0000 J2.0000
G01 Y44.5000
G01 Y55.5000
G01 Y94.5000
G01 Y105.5000
G01 Y150.0000
G03 X612.9475 Y152.0000 I-2.0000 J0.0000
G01 X518.4475
G01 X507.4475
G01 X418.4475
G01 X407.4475
G01 X312.9475
G03 X310.9475 Y150.0000 I0.0000 J-2.0000
G01 Y105.5000
G01 Y94.5000
G01 Y55.5000
G01 Y44.5000
G01 Z-12.0000 F700
G01 Y0.0000 F1400
G03 X312.9475 Y-2.0000 I2.0000 J0.0000
G01 X407.4475
G01 X418.4475
G01 X507.4475
G01 X518.4475
G01 X612.9475
G03 X614.9475 Y0.0000 I0.0000 J2.0000
G01 Y44.5000
G01 Y55.5000
G01 Y94.5000
G01 Y105.5000
G01 Y150.0000
G03 X612.9475 Y152.0000 I-2.0000 J0.0000
G01 X518.4475
G01 X507.4475
G01 X418.4475
G01 X407.4475
G01 X312.9475
G03 X310.9475 Y150.0000 I0.0000 J-2.0000
G01 Y105.5000
G01 Y94.5000
G01 Y55.5000
G01 Y44.5000
G01 Z-14.0000 F700
G01 Y0.0000 F1400
G03 X312.9475 Y-2.0000 I2.0000 J0.0000
G01 X407.4475
G00 Z-13.5000
G01 X418.4475
G01 Z-14.0000 F700
G01 X507.4475 F1400
G00 Z-13.5000
G01 X518.4475
G01 Z-14.0000 F700
G01 X612.9475 F1400
G03 X614.9475 Y0.0000 I0.0000 J2.0000
G01 Y44.5000
G00 Z-13.5000
G01 Y55.5000
G01 Z-14.0000 F700
G01 Y94.5000 F1400
G00 Z-13.5000
G01 Y105.5000
G01 Z-14.0000 F700
G01 Y150.0000 F1400
G03 X612.9475 Y152.0000 I-2.0000 J0.0000
G01 X518.4475
G00 Z-13.5000
G01 X507.4475
G01 Z-14.0000 F700
G01 X418.4475 F1400
G00 Z-13.5000
G01 X407.4475
G01 Z-14.0000 F700
G01 X312.9475 F1400
G03 X310.9475 Y150.0000 I0.0000 J-2.0000
G01 Y105.5000
G00 Z-13.5000
G01 Y94.5000
G01 Z-14.0000 F700
G01 Y55.5000 F1400
G00 Z-13.5000
G01 Y44.5000
G01 Z-14.0000 F700
G01 Z-16.0000
G01 Y0.0000 F1400
G03 X312.9475 Y-2.0000 I2.0000 J0.0000
G01 X407.4475
G00 Z-13.5000
G01 X418.4475
G01 Z-14.0000 F700
G01 Z-16.0000
G01 X507.4475 F1400
G00 Z-13.5000
G01 X518.4475
G01 Z-14.0000 F700
G01 Z-16.0000
G01 X612.9475 F1400
G03 X614.9475 Y0.0000 I0.0000 J2.0000
G01 Y44.5000
G00 Z-13.5000
G01 Y55.5000
G01 Z-14.0000 F700
G01 Z-16.0000
G01 Y94.5000 F1400
G00 Z-13.5000
G01 Y105.5000
G01 Z-14.0000 F700
G01 Z-16.0000
G01 Y150.0000 F1400
G03 X612.9475 Y152.0000 I-2.0000 J0.0000
G01 X518.4475
G00 Z-13.5000
G01 X507.4475
G01 Z-14.0000 F700
G01 Z-16.0000
G01 X418.4475 F1400
G00 Z-13.5000
G01 X407.4475
G01 Z-14.0000 F700
G01 Z-16.0000
G01 X312.9475 F1400
G03 X310.9475 Y150.0000 I0.0000 J-2.0000
G01 Y105.5000
G00 Z-13.5000
G01 Y94.5000
G01 Z-14.0000 F700
G01 Z-16.0000
G01 Y55.5000 F1400
G00 Z-13.5000
G01 Y44.5000
G00 Z-15.5000
G01 Z-16.0000 F700
G01 Z-18.0000
G01 Y0.0000 F1400
G03 X312.9475 Y-2.0000 I2.0000 J0.0000
G01 X407.4475
G00 Z-13.5000
G01 X418.4475
G00 Z-15.5000
G01 Z-16.0000 F700
G01 Z-18.0000
G01 X507.4475 F1400
G00 Z-13.5000
G01 X518.4475
G00 Z-15.5000
G01 Z-16.0000 F700
G01 Z-18.0000
G01 X612.9475 F1400
G03 X614.9475 Y0.0000 I0.0000 J2.0000
G01 Y44.5000
G00 Z-13.5000
G01 Y55.5000
G00 Z-15.5000
G01 Z-16.0000 F700
G01 Z-18.0000
G01 Y94.5000 F1400
G00 Z-13.5000
G01 Y105.5000
G00 Z-15.5000
G01 Z-16.0000 F700
G01 Z-18.0000
G01 Y150.0000 F1400
G03 X612.9475 Y152.0000 I-2.0000 J0.0000
G01 X518.4475
G00 Z-13.5000
G01 X507.4475
G00 Z-15.5000
G01 Z-16.0000 F700
G01 Z-18.0000
G01 X418.4475 F1400
G00 Z-13.5000
G01 X407.4475
G00 Z-15.5000
G01 Z-16.0000 F700
G01 Z-18.0000
G01 X312.9475 F1400
G03 X310.9475 Y150.0000 I0.0000 J-2.0000
G01 Y105.5000
G00 Z-13.5000
G01 Y94.5000
G00 Z-15.5000
G01 Z-16.0000 F700
G01 Z-18.0000
G01 Y55.5000 F1400
G00 Z-13.5000
G01 Y44.5000
G00 Z-17.5000
G01 Z-18.0000 F700
G01 Z-18.5000
G01 Y0.0000 F1400
G03 X312.9475 Y-2.0000 I2.0000 J0.0000
G01 X407.4475
G00 Z-13.5000
G01 X418.4475
G00 Z-17.5000
G01 Z-18.0000 F700
G01 Z-18.5000
G01 X507.4475 F1400
G00 Z-13.5000
G01 X518.4475
G00 Z-17.5000
G01 Z-18.0000 F700
G01 Z-18.5000
G01 X612.9475 F1400
G03 X614.9475 Y0.0000 I0.0000 J2.0000
G01 Y44.5000
G00 Z-13.5000
G01 Y55.5000
G00 Z-17.5000
G01 Z-18.0000 F700
G01 Z-18.5000
G01 Y94.5000 F1400
G00 Z-13.5000
G01 Y105.5000
G00 Z-17.5000
G01 Z-18.0000 F700
G01 Z-18.5000
G01 Y150.0000 F1400
G03 X612.9475 Y152.0000 I-2.0000 J0.0000
G01 X518.4475
G00 Z-13.5000
G01 X507.4475
G00 Z-17.5000
G01 Z-18.0000 F700
G01 Z-18.5000
G01 X418.4475 F1400
G00 Z-13.5000
G01 X407.4475
G00 Z-17.5000
G01 Z-18.0000 F700
G01 Z-18.5000
G01 X312.9475 F1400
G03 X310.9475 Y150.0000 I0.0000 J-2.0000
G01 Y105.5000
G00 Z-13.5000
G01 Y94.5000
G00 Z-17.5000
G01 Z-18.0000 F700
G01 Z-18.5000
G01 Y55.5000 F1400
G00 Z-13.5000
G01 Y44.5000
G00 Z5.0000
G00 X0.0000 Y0.0000

M05
