(Projekt Brett_1___Version_3)
(Erstellt mit Estlcam Version 11 Build 11,245)
(Laufzeit ca. 00:34:34 Stunden)

(Benötigte Werkzeuge:)
(Fräser 4mm HSS-AI)

M03 S22000
G00 Z5.0000


(Nr. 1 Tasche linear: Ausschnitt 1)
G00 X2.4000 Y155.0000
G00 Z0.5000
G01 Z0.0000 F700 S22000
G01 Z-2.0000
G01 X165.6000 F1400
G01 Y158.0000
G01 X2.4000
G01 Y161.0000
G01 X165.6000
G01 Y164.0000
G01 X2.4000
G01 Y167.0000
G01 X165.6000
G01 X166.0000 Y166.9293
G01 Y154.0000
G01 X166.5858 Y153.4142
G01 X166.0000 Y154.0000
G01 X2.0000
G01 X1.4142 Y153.4142
G01 X2.0000 Y154.0000
G01 Y168.0000
G01 X1.4142 Y168.5858
G01 X2.0000 Y168.0000
G01 X166.0000
G01 X166.5858 Y168.5858
G01 X166.0000 Y168.0000
G01 Y166.9293
G01 X165.6000 Y167.0000
G01 Z-4.0000 F700
G01 X2.4000 F1400
G01 Y164.0000
G01 X165.6000
G01 Y161.0000
G01 X2.4000
G01 Y158.0000
G01 X165.6000
G01 Y155.0000
G01 X2.4000
G01 X2.0000 Y155.0707
G01 Y168.0000
G01 X1.4142 Y168.5858
G01 X2.0000 Y168.0000
G01 X166.0000
G01 X166.5858 Y168.5858
G01 X166.0000 Y168.0000
G01 Y154.0000
G01 X166.5858 Y153.4142
G01 X166.0000 Y154.0000
G01 X2.0000
G01 X1.4142 Y153.4142
G01 X2.0000 Y154.0000
G01 Y155.0707
G01 X2.4000 Y155.0000
G01 Z-6.0000 F700
G01 X165.6000 F1400
G01 Y158.0000
G01 X2.4000
G01 Y161.0000
G01 X165.6000
G01 Y164.0000
G01 X2.4000
G01 Y167.0000
G01 X165.6000
G01 X166.0000 Y166.9293
G01 Y154.0000
G01 X166.5858 Y153.4142
G01 X166.0000 Y154.0000
G01 X2.0000
G01 X1.4142 Y153.4142
G01 X2.0000 Y154.0000
G01 Y168.0000
G01 X1.4142 Y168.5858
G01 X2.0000 Y168.0000
G01 X166.0000
G01 X166.5858 Y168.5858
G01 X166.0000 Y168.0000
G01 Y166.9293
G01 X165.6000 Y167.0000
G01 Z-8.0000 F700
G01 X2.4000 F1400
G01 Y164.0000
G01 X165.6000
G01 Y161.0000
G01 X2.4000
G01 Y158.0000
G01 X165.6000
G01 Y155.0000
G01 X2.4000
G01 X2.0000 Y155.0707
G01 Y168.0000
G01 X1.4142 Y168.5858
G01 X2.0000 Y168.0000
G01 X166.0000
G01 X166.5858 Y168.5858
G01 X166.0000 Y168.0000
G01 Y154.0000
G01 X166.5858 Y153.4142
G01 X166.0000 Y154.0000
G01 X2.0000
G01 X1.4142 Y153.4142
G01 X2.0000 Y154.0000
G01 Y155.0707
G01 X2.4000 Y155.0000
G00 Z5.0000


(Nr. 2 Tasche linear: Ausschnitt 2)
G00 X2.4000 Y15.0000 Z5.0000
G00 Z0.5000
G01 Z0.0000 F700
G01 Z-2.0000
G01 X165.6000 F1400
G01 Y12.0000
G01 X2.4000
G01 Y9.0000
G01 X165.6000
G01 Y6.0000
G01 X2.4000
G01 Y3.0000
G01 X165.6000
G01 X166.0000 Y3.0707
G01 Y2.0000
G01 X166.5858 Y1.4142
G01 X166.0000 Y2.0000
G01 X2.0000
G01 X1.4142 Y1.4142
G01 X2.0000 Y2.0000
G01 Y16.0000
G01 X1.4142 Y16.5858
G01 X2.0000 Y16.0000
G01 X166.0000
G01 X166.5858 Y16.5858
G01 X166.0000 Y16.0000
G01 Y3.0707
G01 X165.6000 Y3.0000
G01 Z-4.0000 F700
G01 X2.4000 F1400
G01 Y6.0000
G01 X165.6000
G01 Y9.0000
G01 X2.4000
G01 Y12.0000
G01 X165.6000
G01 Y15.0000
G01 X2.4000
G01 X2.0000 Y14.9293
G01 Y16.0000
G01 X1.4142 Y16.5858
G01 X2.0000 Y16.0000
G01 X166.0000
G01 X166.5858 Y16.5858
G01 X166.0000 Y16.0000
G01 Y2.0000
G01 X166.5858 Y1.4142
G01 X166.0000 Y2.0000
G01 X2.0000
G01 X1.4142 Y1.4142
G01 X2.0000 Y2.0000
G01 Y14.9293
G01 X2.4000 Y15.0000
G01 Z-6.0000 F700
G01 X165.6000 F1400
G01 Y12.0000
G01 X2.4000
G01 Y9.0000
G01 X165.6000
G01 Y6.0000
G01 X2.4000
G01 Y3.0000
G01 X165.6000
G01 X166.0000 Y3.0707
G01 Y2.0000
G01 X166.5858 Y1.4142
G01 X166.0000 Y2.0000
G01 X2.0000
G01 X1.4142 Y1.4142
G01 X2.0000 Y2.0000
G01 Y16.0000
G01 X1.4142 Y16.5858
G01 X2.0000 Y16.0000
G01 X166.0000
G01 X166.5858 Y16.5858
G01 X166.0000 Y16.0000
G01 Y3.0707
G01 X165.6000 Y3.0000
G01 Z-8.0000 F700
G01 X2.4000 F1400
G01 Y6.0000
G01 X165.6000
G01 Y9.0000
G01 X2.4000
G01 Y12.0000
G01 X165.6000
G01 Y15.0000
G01 X2.4000
G01 X2.0000 Y14.9293
G01 Y16.0000
G01 X1.4142 Y16.5858
G01 X2.0000 Y16.0000
G01 X166.0000
G01 X166.5858 Y16.5858
G01 X166.0000 Y16.0000
G01 Y2.0000
G01 X166.5858 Y1.4142
G01 X166.0000 Y2.0000
G01 X2.0000
G01 X1.4142 Y1.4142
G01 X2.0000 Y2.0000
G01 Y14.9293
G01 X2.4000 Y15.0000
G00 Z5.0000


(Nr. 3 Teil: Teil 1)
G00 X117.5000 Y-2.0000 Z5.0000
G00 Z0.5000
G01 Z0.0000 F700
G01 Z-2.0000
G01 X168.0000 F1400
G03 X170.0000 Y0.0000 I0.0000 J2.0000
G01 Y51.1667
G01 Y62.1667
G01 Y107.8333
G01 Y118.8333
G01 Y170.0000
G03 X168.0000 Y172.0000 I-2.0000 J0.0000
G01 X117.5000
G01 X106.5000
G01 X61.5000
G01 X50.5000
G01 X0.0000
G03 X-2.0000 Y170.0000 I0.0000 J-2.0000
G01 Y124.8333
G01 Y113.8333
G01 Y74.1667
G01 Y63.1667
G01 Y18.0000
G01 Y0.0000
G03 X0.0000 Y-2.0000 I2.0000 J0.0000
G01 X50.5000
G01 X61.5000
G01 X106.5000
G01 X117.5000
G01 Z-4.0000 F700
G01 X168.0000 F1400
G03 X170.0000 Y0.0000 I0.0000 J2.0000
G01 Y51.1667
G01 Y62.1667
G01 Y107.8333
G01 Y118.8333
G01 Y170.0000
G03 X168.0000 Y172.0000 I-2.0000 J0.0000
G01 X117.5000
G01 X106.5000
G01 X61.5000
G01 X50.5000
G01 X0.0000
G03 X-2.0000 Y170.0000 I0.0000 J-2.0000
G01 Y124.8333
G01 Y113.8333
G01 Y74.1667
G01 Y63.1667
G01 Y18.0000
G01 Y0.0000
G03 X0.0000 Y-2.0000 I2.0000 J0.0000
G01 X50.5000
G01 X61.5000
G01 X106.5000
G01 X117.5000
G01 Z-6.0000 F700
G01 X168.0000 F1400
G03 X170.0000 Y0.0000 I0.0000 J2.0000
G01 Y51.1667
G01 Y62.1667
G01 Y107.8333
G01 Y118.8333
G01 Y170.0000
G03 X168.0000 Y172.0000 I-2.0000 J0.0000
G01 X117.5000
G01 X106.5000
G01 X61.5000
G01 X50.5000
G01 X0.0000
G03 X-2.0000 Y170.0000 I0.0000 J-2.0000
G01 Y124.8333
G01 Y113.8333
G01 Y74.1667
G01 Y63.1667
G01 Y18.0000
G01 Y0.0000
G03 X0.0000 Y-2.0000 I2.0000 J0.0000
G01 X50.5000
G01 X61.5000
G01 X106.5000
G01 X117.5000
G01 Z-8.0000 F700
G01 X168.0000 F1400
G03 X170.0000 Y0.0000 I0.0000 J2.0000
G01 Y51.1667
G01 Y62.1667
G01 Y107.8333
G01 Y118.8333
G01 Y170.0000
G03 X168.0000 Y172.0000 I-2.0000 J0.0000
G01 X117.5000
G01 X106.5000
G01 X61.5000
G01 X50.5000
G01 X0.0000
G03 X-2.0000 Y170.0000 I0.0000 J-2.0000
G01 Y124.8333
G01 Y113.8333
G01 Y74.1667
G01 Y63.1667
G01 Y18.0000
G01 Y0.0000
G03 X0.0000 Y-2.0000 I2.0000 J0.0000
G01 X50.5000
G01 X61.5000
G01 X106.5000
G01 X117.5000
G01 Z-10.0000 F700
G01 X168.0000 F1400
G03 X170.0000 Y0.0000 I0.0000 J2.0000
G01 Y51.1667
G01 Y62.1667
G01 Y107.8333
G01 Y118.8333
G01 Y170.0000
G03 X168.0000 Y172.0000 I-2.0000 J0.0000
G01 X117.5000
G01 X106.5000
G01 X61.5000
G01 X50.5000
G01 X0.0000
G03 X-2.0000 Y170.0000 I0.0000 J-2.0000
G01 Y124.8333
G01 Y113.8333
G01 Y74.1667
G01 Y63.1667
G01 Y18.0000
G01 Y0.0000
G03 X0.0000 Y-2.0000 I2.0000 J0.0000
G01 X50.5000
G01 X61.5000
G01 X106.5000
G01 X117.5000
G01 Z-12.0000 F700
G01 X168.0000 F1400
G03 X170.0000 Y0.0000 I0.0000 J2.0000
G01 Y51.1667
G01 Y62.1667
G01 Y107.8333
G01 Y118.8333
G01 Y170.0000
G03 X168.0000 Y172.0000 I-2.0000 J0.0000
G01 X117.5000
G01 X106.5000
G01 X61.5000
G01 X50.5000
G01 X0.0000
G03 X-2.0000 Y170.0000 I0.0000 J-2.0000
G01 Y124.8333
G01 Y113.8333
G01 Y74.1667
G01 Y63.1667
G01 Y18.0000
G01 Y0.0000
G03 X0.0000 Y-2.0000 I2.0000 J0.0000
G01 X50.5000
G01 X61.5000
G01 X106.5000
G01 X117.5000
G01 Z-14.0000 F700
G01 X168.0000 F1400
G03 X170.0000 Y0.0000 I0.0000 J2.0000
G01 Y51.1667
G00 Z-13.5000
G01 Y62.1667
G01 Z-14.0000 F700
G01 Y107.8333 F1400
G00 Z-13.5000
G01 Y118.8333
G01 Z-14.0000 F700
G01 Y170.0000 F1400
G03 X168.0000 Y172.0000 I-2.0000 J0.0000
G01 X117.5000
G00 Z-13.5000
G01 X106.5000
G01 Z-14.0000 F700
G01 X61.5000 F1400
G00 Z-13.5000
G01 X50.5000
G01 Z-14.0000 F700
G01 X0.0000 F1400
G03 X-2.0000 Y170.0000 I0.0000 J-2.0000
G01 Y124.8333
G00 Z-13.5000
G01 Y113.8333
G01 Z-14.0000 F700
G01 Y74.1667 F1400
G00 Z-13.5000
G01 Y63.1667
G01 Z-14.0000 F700
G01 Y18.0000 F1400
G01 Y0.0000
G03 X0.0000 Y-2.0000 I2.0000 J0.0000
G01 X50.5000
G00 Z-13.5000
G01 X61.5000
G01 Z-14.0000 F700
G01 X106.5000 F1400
G00 Z-13.5000
G01 X117.5000
G01 Z-14.0000 F700
G01 Z-16.0000
G01 X168.0000 F1400
G03 X170.0000 Y0.0000 I0.0000 J2.0000
G01 Y51.1667
G00 Z-13.5000
G01 Y62.1667
G01 Z-14.0000 F700
G01 Z-16.0000
G01 Y107.8333 F1400
G00 Z-13.5000
G01 Y118.8333
G01 Z-14.0000 F700
G01 Z-16.0000
G01 Y170.0000 F1400
G03 X168.0000 Y172.0000 I-2.0000 J0.0000
G01 X117.5000
G00 Z-13.5000
G01 X106.5000
G01 Z-14.0000 F700
G01 Z-16.0000
G01 X61.5000 F1400
G00 Z-13.5000
G01 X50.5000
G01 Z-14.0000 F700
G01 Z-16.0000
G01 X0.0000 F1400
G03 X-2.0000 Y170.0000 I0.0000 J-2.0000
G01 Y124.8333
G00 Z-13.5000
G01 Y113.8333
G01 Z-14.0000 F700
G01 Z-16.0000
G01 Y74.1667 F1400
G00 Z-13.5000
G01 Y63.1667
G01 Z-14.0000 F700
G01 Z-16.0000
G01 Y18.0000 F1400
G01 Y0.0000
G03 X0.0000 Y-2.0000 I2.0000 J0.0000
G01 X50.5000
G00 Z-13.5000
G01 X61.5000
G01 Z-14.0000 F700
G01 Z-16.0000
G01 X106.5000 F1400
G00 Z-13.5000
G01 X117.5000
G00 Z-15.5000
G01 Z-16.0000 F700
G01 Z-18.0000
G01 X168.0000 F1400
G03 X170.0000 Y0.0000 I0.0000 J2.0000
G01 Y51.1667
G00 Z-13.5000
G01 Y62.1667
G00 Z-15.5000
G01 Z-16.0000 F700
G01 Z-18.0000
G01 Y107.8333 F1400
G00 Z-13.5000
G01 Y118.8333
G00 Z-15.5000
G01 Z-16.0000 F700
G01 Z-18.0000
G01 Y170.0000 F1400
G03 X168.0000 Y172.0000 I-2.0000 J0.0000
G01 X117.5000
G00 Z-13.5000
G01 X106.5000
G00 Z-15.5000
G01 Z-16.0000 F700
G01 Z-18.0000
G01 X61.5000 F1400
G00 Z-13.5000
G01 X50.5000
G00 Z-15.5000
G01 Z-16.0000 F700
G01 Z-18.0000
G01 X0.0000 F1400
G03 X-2.0000 Y170.0000 I0.0000 J-2.0000
G01 Y124.8333
G00 Z-13.5000
G01 Y113.8333
G00 Z-15.5000
G01 Z-16.0000 F700
G01 Z-18.0000
G01 Y74.1667 F1400
G00 Z-13.5000
G01 Y63.1667
G00 Z-15.5000
G01 Z-16.0000 F700
G01 Z-18.0000
G01 Y18.0000 F1400
G01 Y0.0000
G03 X0.0000 Y-2.0000 I2.0000 J0.0000
G01 X50.5000
G00 Z-13.5000
G01 X61.5000
G00 Z-15.5000
G01 Z-16.0000 F700
G01 Z-18.0000
G01 X106.5000 F1400
G00 Z-13.5000
G01 X117.5000
G00 Z-17.5000
G01 Z-18.0000 F700
G01 Z-18.5000
G01 X168.0000 F1400
G03 X170.0000 Y0.0000 I0.0000 J2.0000
G01 Y51.1667
G00 Z-13.5000
G01 Y62.1667
G00 Z-17.5000
G01 Z-18.0000 F700
G01 Z-18.5000
G01 Y107.8333 F1400
G00 Z-13.5000
G01 Y118.8333
G00 Z-17.5000
G01 Z-18.0000 F700
G01 Z-18.5000
G01 Y170.0000 F1400
G03 X168.0000 Y172.0000 I-2.0000 J0.0000
G01 X117.5000
G00 Z-13.5000
G01 X106.5000
G00 Z-17.5000
G01 Z-18.0000 F700
G01 Z-18.5000
G01 X61.5000 F1400
G00 Z-13.5000
G01 X50.5000
G00 Z-17.5000
G01 Z-18.0000 F700
G01 Z-18.5000
G01 X0.0000 F1400
G03 X-2.0000 Y170.0000 I0.0000 J-2.0000
G01 Y124.8333
G00 Z-13.5000
G01 Y113.8333
G00 Z-17.5000
G01 Z-18.0000 F700
G01 Z-18.5000
G01 Y74.1667 F1400
G00 Z-13.5000
G01 Y63.1667
G00 Z-17.5000
G01 Z-18.0000 F700
G01 Z-18.5000
G01 Y18.0000 F1400
G01 Y0.0000
G03 X0.0000 Y-2.0000 I2.0000 J0.0000
G01 X50.5000
G00 Z-13.5000
G01 X61.5000
G00 Z-17.5000
G01 Z-18.0000 F700
G01 Z-18.5000
G01 X106.5000 F1400
G00 Z-13.5000
G01 X117.5000
G00 Z5.0000


(Nr. 4 Tasche linear: Ausschnitt 3)
G00 X182.4000 Y156.0000 Z5.0000
G00 Z0.5000
G01 Z0.0000 F700
G01 Z-2.0000
G01 X328.0000 F1400
G01 Y154.0000
G01 X328.5858 Y153.4142
G01 X328.0000 Y154.0000
G01 X182.0000
G01 X181.4142 Y153.4142
G01 X182.0000 Y154.0000
G01 Y158.0000
G01 X181.4142 Y158.5858
G01 X182.0000 Y158.0000
G01 X328.0000
G01 X328.5858 Y158.5858
G01 X328.0000 Y158.0000
G01 Y156.0000
G01 X327.6000
G01 Z-4.0000 F700
G01 X182.0000 F1400
G01 Y158.0000
G01 X181.4142 Y158.5858
G01 X182.0000 Y158.0000
G01 X328.0000
G01 X328.5858 Y158.5858
G01 X328.0000 Y158.0000
G01 Y154.0000
G01 X328.5858 Y153.4142
G01 X328.0000 Y154.0000
G01 X182.0000
G01 X181.4142 Y153.4142
G01 X182.0000 Y154.0000
G01 Y156.0000
G01 X182.4000
G01 Z-6.0000 F700
G01 X328.0000 F1400
G01 Y154.0000
G01 X328.5858 Y153.4142
G01 X328.0000 Y154.0000
G01 X182.0000
G01 X181.4142 Y153.4142
G01 X182.0000 Y154.0000
G01 Y158.0000
G01 X181.4142 Y158.5858
G01 X182.0000 Y158.0000
G01 X328.0000
G01 X328.5858 Y158.5858
G01 X328.0000 Y158.0000
G01 Y156.0000
G01 X327.6000
G01 Z-8.0000 F700
G01 X182.0000 F1400
G01 Y158.0000
G01 X181.4142 Y158.5858
G01 X182.0000 Y158.0000
G01 X328.0000
G01 X328.5858 Y158.5858
G01 X328.0000 Y158.0000
G01 Y154.0000
G01 X328.5858 Y153.4142
G01 X328.0000 Y154.0000
G01 X182.0000
G01 X181.4142 Y153.4142
G01 X182.0000 Y154.0000
G01 Y156.0000
G01 X182.4000
G01 Z-9.0000 F700
G01 X328.0000 F1400
G01 Y154.0000
G01 X328.5858 Y153.4142
G01 X328.0000 Y154.0000
G01 X182.0000
G01 X181.4142 Y153.4142
G01 X182.0000 Y154.0000
G01 Y158.0000
G01 X181.4142 Y158.5858
G01 X182.0000 Y158.0000
G01 X328.0000
G01 X328.5858 Y158.5858
G01 X328.0000 Y158.0000
G01 Y156.0000
G01 X327.6000
G00 Z5.0000


(Nr. 5 Tasche linear: Ausschnitt 4)
G00 X327.6000 Y14.0000 Z5.0000
G00 Z0.5000
G01 Z0.0000 F700
G01 Z-2.0000
G01 X182.0000 F1400
G01 Y16.0000
G01 X181.4142 Y16.5858
G01 X182.0000 Y16.0000
G01 X328.0000
G01 X328.5858 Y16.5858
G01 X328.0000 Y16.0000
G01 Y12.0000
G01 X328.5858 Y11.4142
G01 X328.0000 Y12.0000
G01 X182.0000
G01 X181.4142 Y11.4142
G01 X182.0000 Y12.0000
G01 Y14.0000
G01 X182.4000
G01 Z-4.0000 F700
G01 X327.6000 F1400
G01 X328.0000
G01 Y12.0000
G01 X328.5858 Y11.4142
G01 X328.0000 Y12.0000
G01 X182.0000
G01 X181.4142 Y11.4142
G01 X182.0000 Y12.0000
G01 Y16.0000
G01 X181.4142 Y16.5858
G01 X182.0000 Y16.0000
G01 X328.0000
G01 X328.5858 Y16.5858
G01 X328.0000 Y16.0000
G01 Y14.0000
G01 X327.6000
G01 Z-6.0000 F700
G01 X182.0000 F1400
G01 Y16.0000
G01 X181.4142 Y16.5858
G01 X182.0000 Y16.0000
G01 X328.0000
G01 X328.5858 Y16.5858
G01 X328.0000 Y16.0000
G01 Y12.0000
G01 X328.5858 Y11.4142
G01 X328.0000 Y12.0000
G01 X182.0000
G01 X181.4142 Y11.4142
G01 X182.0000 Y12.0000
G01 Y14.0000
G01 X182.4000
G01 Z-8.0000 F700
G01 X327.6000 F1400
G01 X328.0000
G01 Y12.0000
G01 X328.5858 Y11.4142
G01 X328.0000 Y12.0000
G01 X182.0000
G01 X181.4142 Y11.4142
G01 X182.0000 Y12.0000
G01 Y16.0000
G01 X181.4142 Y16.5858
G01 X182.0000 Y16.0000
G01 X328.0000
G01 X328.5858 Y16.5858
G01 X328.0000 Y16.0000
G01 Y14.0000
G01 X327.6000
G01 Z-9.0000 F700
G01 X182.0000 F1400
G01 Y16.0000
G01 X181.4142 Y16.5858
G01 X182.0000 Y16.0000
G01 X328.0000
G01 X328.5858 Y16.5858
G01 X328.0000 Y16.0000
G01 Y12.0000
G01 X328.5858 Y11.4142
G01 X328.0000 Y12.0000
G01 X182.0000
G01 X181.4142 Y11.4142
G01 X182.0000 Y12.0000
G01 Y14.0000
G01 X182.4000
G00 Z5.0000


(Nr. 6 Teil: Teil 2)
G00 X285.5000 Y8.0000 Z5.0000
G00 Z0.5000
G01 Z0.0000 F700
G01 Z-2.0000
G01 X330.0000 F1400
G03 X332.0000 Y10.0000 I0.0000 J2.0000
G01 Y54.5000
G01 Y65.5000
G01 Y104.5000
G01 Y115.5000
G01 Y160.0000
G03 X330.0000 Y162.0000 I-2.0000 J0.0000
G01 X285.5000
G01 X274.5000
G01 X235.5000
G01 X224.5000
G01 X180.0000
G03 X178.0000 Y160.0000 I0.0000 J-2.0000
G01 Y115.5000
G01 Y104.5000
G01 Y65.5000
G01 Y54.5000
G01 Y10.0000
G03 X180.0000 Y8.0000 I2.0000 J0.0000
G01 X224.5000
G01 X235.5000
G01 X274.5000
G01 X285.5000
G01 Z-4.0000 F700
G01 X330.0000 F1400
G03 X332.0000 Y10.0000 I0.0000 J2.0000
G01 Y54.5000
G01 Y65.5000
G01 Y104.5000
G01 Y115.5000
G01 Y160.0000
G03 X330.0000 Y162.0000 I-2.0000 J0.0000
G01 X285.5000
G01 X274.5000
G01 X235.5000
G01 X224.5000
G01 X180.0000
G03 X178.0000 Y160.0000 I0.0000 J-2.0000
G01 Y115.5000
G01 Y104.5000
G01 Y65.5000
G01 Y54.5000
G01 Y10.0000
G03 X180.0000 Y8.0000 I2.0000 J0.0000
G01 X224.5000
G01 X235.5000
G01 X274.5000
G01 X285.5000
G01 Z-6.0000 F700
G01 X330.0000 F1400
G03 X332.0000 Y10.0000 I0.0000 J2.0000
G01 Y54.5000
G01 Y65.5000
G01 Y104.5000
G01 Y115.5000
G01 Y160.0000
G03 X330.0000 Y162.0000 I-2.0000 J0.0000
G01 X285.5000
G01 X274.5000
G01 X235.5000
G01 X224.5000
G01 X180.0000
G03 X178.0000 Y160.0000 I0.0000 J-2.0000
G01 Y115.5000
G01 Y104.5000
G01 Y65.5000
G01 Y54.5000
G01 Y10.0000
G03 X180.0000 Y8.0000 I2.0000 J0.0000
G01 X224.5000
G01 X235.5000
G01 X274.5000
G01 X285.5000
G01 Z-8.0000 F700
G01 X330.0000 F1400
G03 X332.0000 Y10.0000 I0.0000 J2.0000
G01 Y54.5000
G01 Y65.5000
G01 Y104.5000
G01 Y115.5000
G01 Y160.0000
G03 X330.0000 Y162.0000 I-2.0000 J0.0000
G01 X285.5000
G01 X274.5000
G01 X235.5000
G01 X224.5000
G01 X180.0000
G03 X178.0000 Y160.0000 I0.0000 J-2.0000
G01 Y115.5000
G01 Y104.5000
G01 Y65.5000
G01 Y54.5000
G01 Y10.0000
G03 X180.0000 Y8.0000 I2.0000 J0.0000
G01 X224.5000
G01 X235.5000
G01 X274.5000
G01 X285.5000
G01 Z-10.0000 F700
G01 X330.0000 F1400
G03 X332.0000 Y10.0000 I0.0000 J2.0000
G01 Y54.5000
G01 Y65.5000
G01 Y104.5000
G01 Y115.5000
G01 Y160.0000
G03 X330.0000 Y162.0000 I-2.0000 J0.0000
G01 X285.5000
G01 X274.5000
G01 X235.5000
G01 X224.5000
G01 X180.0000
G03 X178.0000 Y160.0000 I0.0000 J-2.0000
G01 Y115.5000
G01 Y104.5000
G01 Y65.5000
G01 Y54.5000
G01 Y10.0000
G03 X180.0000 Y8.0000 I2.0000 J0.0000
G01 X224.5000
G01 X235.5000
G01 X274.5000
G01 X285.5000
G01 Z-12.0000 F700
G01 X330.0000 F1400
G03 X332.0000 Y10.0000 I0.0000 J2.0000
G01 Y54.5000
G01 Y65.5000
G01 Y104.5000
G01 Y115.5000
G01 Y160.0000
G03 X330.0000 Y162.0000 I-2.0000 J0.0000
G01 X285.5000
G01 X274.5000
G01 X235.5000
G01 X224.5000
G01 X180.0000
G03 X178.0000 Y160.0000 I0.0000 J-2.0000
G01 Y115.5000
G01 Y104.5000
G01 Y65.5000
G01 Y54.5000
G01 Y10.0000
G03 X180.0000 Y8.0000 I2.0000 J0.0000
G01 X224.5000
G01 X235.5000
G01 X274.5000
G01 X285.5000
G01 Z-14.0000 F700
G01 X330.0000 F1400
G03 X332.0000 Y10.0000 I0.0000 J2.0000
G01 Y54.5000
G00 Z-13.5000
G01 Y65.5000
G01 Z-14.0000 F700
G01 Y104.5000 F1400
G00 Z-13.5000
G01 Y115.5000
G01 Z-14.0000 F700
G01 Y160.0000 F1400
G03 X330.0000 Y162.0000 I-2.0000 J0.0000
G01 X285.5000
G00 Z-13.5000
G01 X274.5000
G01 Z-14.0000 F700
G01 X235.5000 F1400
G00 Z-13.5000
G01 X224.5000
G01 Z-14.0000 F700
G01 X180.0000 F1400
G03 X178.0000 Y160.0000 I0.0000 J-2.0000
G01 Y115.5000
G00 Z-13.5000
G01 Y104.5000
G01 Z-14.0000 F700
G01 Y65.5000 F1400
G00 Z-13.5000
G01 Y54.5000
G01 Z-14.0000 F700
G01 Y10.0000 F1400
G03 X180.0000 Y8.0000 I2.0000 J0.0000
G01 X224.5000
G00 Z-13.5000
G01 X235.5000
G01 Z-14.0000 F700
G01 X274.5000 F1400
G00 Z-13.5000
G01 X285.5000
G01 Z-14.0000 F700
G01 Z-16.0000
G01 X330.0000 F1400
G03 X332.0000 Y10.0000 I0.0000 J2.0000
G01 Y54.5000
G00 Z-13.5000
G01 Y65.5000
G01 Z-14.0000 F700
G01 Z-16.0000
G01 Y104.5000 F1400
G00 Z-13.5000
G01 Y115.5000
G01 Z-14.0000 F700
G01 Z-16.0000
G01 Y160.0000 F1400
G03 X330.0000 Y162.0000 I-2.0000 J0.0000
G01 X285.5000
G00 Z-13.5000
G01 X274.5000
G01 Z-14.0000 F700
G01 Z-16.0000
G01 X235.5000 F1400
G00 Z-13.5000
G01 X224.5000
G01 Z-14.0000 F700
G01 Z-16.0000
G01 X180.0000 F1400
G03 X178.0000 Y160.0000 I0.0000 J-2.0000
G01 Y115.5000
G00 Z-13.5000
G01 Y104.5000
G01 Z-14.0000 F700
G01 Z-16.0000
G01 Y65.5000 F1400
G00 Z-13.5000
G01 Y54.5000
G01 Z-14.0000 F700
G01 Z-16.0000
G01 Y10.0000 F1400
G03 X180.0000 Y8.0000 I2.0000 J0.0000
G01 X224.5000
G00 Z-13.5000
G01 X235.5000
G01 Z-14.0000 F700
G01 Z-16.0000
G01 X274.5000 F1400
G00 Z-13.5000
G01 X285.5000
G00 Z-15.5000
G01 Z-16.0000 F700
G01 Z-18.0000
G01 X330.0000 F1400
G03 X332.0000 Y10.0000 I0.0000 J2.0000
G01 Y54.5000
G00 Z-13.5000
G01 Y65.5000
G00 Z-15.5000
G01 Z-16.0000 F700
G01 Z-18.0000
G01 Y104.5000 F1400
G00 Z-13.5000
G01 Y115.5000
G00 Z-15.5000
G01 Z-16.0000 F700
G01 Z-18.0000
G01 Y160.0000 F1400
G03 X330.0000 Y162.0000 I-2.0000 J0.0000
G01 X285.5000
G00 Z-13.5000
G01 X274.5000
G00 Z-15.5000
G01 Z-16.0000 F700
G01 Z-18.0000
G01 X235.5000 F1400
G00 Z-13.5000
G01 X224.5000
G00 Z-15.5000
G01 Z-16.0000 F700
G01 Z-18.0000
G01 X180.0000 F1400
G03 X178.0000 Y160.0000 I0.0000 J-2.0000
G01 Y115.5000
G00 Z-13.5000
G01 Y104.5000
G00 Z-15.5000
G01 Z-16.0000 F700
G01 Z-18.0000
G01 Y65.5000 F1400
G00 Z-13.5000
G01 Y54.5000
G00 Z-15.5000
G01 Z-16.0000 F700
G01 Z-18.0000
G01 Y10.0000 F1400
G03 X180.0000 Y8.0000 I2.0000 J0.0000
G01 X224.5000
G00 Z-13.5000
G01 X235.5000
G00 Z-15.5000
G01 Z-16.0000 F700
G01 Z-18.0000
G01 X274.5000 F1400
G00 Z-13.5000
G01 X285.5000
G00 Z-17.5000
G01 Z-18.0000 F700
G01 Z-18.5000
G01 X330.0000 F1400
G03 X332.0000 Y10.0000 I0.0000 J2.0000
G01 Y54.5000
G00 Z-13.5000
G01 Y65.5000
G00 Z-17.5000
G01 Z-18.0000 F700
G01 Z-18.5000
G01 Y104.5000 F1400
G00 Z-13.5000
G01 Y115.5000
G00 Z-17.5000
G01 Z-18.0000 F700
G01 Z-18.5000
G01 Y160.0000 F1400
G03 X330.0000 Y162.0000 I-2.0000 J0.0000
G01 X285.5000
G00 Z-13.5000
G01 X274.5000
G00 Z-17.5000
G01 Z-18.0000 F700
G01 Z-18.5000
G01 X235.5000 F1400
G00 Z-13.5000
G01 X224.5000
G00 Z-17.5000
G01 Z-18.0000 F700
G01 Z-18.5000
G01 X180.0000 F1400
G03 X178.0000 Y160.0000 I0.0000 J-2.0000
G01 Y115.5000
G00 Z-13.5000
G01 Y104.5000
G00 Z-17.5000
G01 Z-18.0000 F700
G01 Z-18.5000
G01 Y65.5000 F1400
G00 Z-13.5000
G01 Y54.5000
G00 Z-17.5000
G01 Z-18.0000 F700
G01 Z-18.5000
G01 Y10.0000 F1400
G03 X180.0000 Y8.0000 I2.0000 J0.0000
G01 X224.5000
G00 Z-13.5000
G01 X235.5000
G00 Z-17.5000
G01 Z-18.0000 F700
G01 Z-18.5000
G01 X274.5000 F1400
G00 Z-13.5000
G01 X285.5000
G00 Z5.0000


(Nr. 7 Ausschnitt: Ausschnitt 5)
G00 X351.0079 Y84.7413 Z5.0000
G00 Z0.5000
G01 Z0.0000 F700
G01 Z-2.0000
G02 X352.2328 Y85.9659 I0.9660 J0.2587 F1400
G02 X352.6809 Y84.2928 I-0.2589 J-0.9659
G02 X351.0079 Y84.7413 I-0.7070 J0.7072
G00 Z5.0000


(Nr. 8 Ausschnitt: Ausschnitt 6)
G00 X622.0036 Y160.7580 Z5.0000
G00 Z0.5000
G01 Z0.0000 F700
G01 Z-2.0000
G02 X623.2494 Y161.9613 I0.9703 J0.2420 F1400
G02 X623.6686 Y160.2807 I-0.2755 J-0.9613
G02 X622.0036 Y160.7580 I-0.6947 J0.7193
G00 Z5.0000


(Nr. 9 Ausschnitt: Ausschnitt 7)
G00 X621.9745 Y8.9652 Z5.0000
G00 Z0.5000
G01 Z0.0000 F700
G01 Z-2.0000
G02 X623.4435 Y9.8829 I0.9994 J0.0348 F1400
G02 X623.5037 Y8.1519 I-0.4696 J-0.8829
G02 X621.9745 Y8.9652 I-0.5298 J0.8481
G00 Z5.0000


(Nr. 10 Teil: Teil 3)
G00 X548.4737 Y-2.0000 Z5.0000
G00 Z0.5000
G01 Z0.0000 F700
G01 Z-2.0000
G01 X642.9737 F1400
G03 X644.9737 Y0.0000 I0.0000 J2.0000
G01 Y51.1667
G01 Y62.1667
G01 Y107.8333
G01 Y118.8333
G01 Y170.0000
G03 X642.9737 Y172.0000 I-2.0000 J0.0000
G01 X548.4737
G01 X537.4737
G01 X448.4737
G01 X437.4737
G01 X342.9737
G03 X340.9737 Y170.0000 I0.0000 J-2.0000
G01 Y118.8333
G01 Y107.8333
G01 Y62.1667
G01 Y51.1667
G01 Y0.0000
G03 X342.9737 Y-2.0000 I2.0000 J0.0000
G01 X437.4737
G01 X448.4737
G01 X537.4737
G01 X548.4737
G01 Z-4.0000 F700
G01 X642.9737 F1400
G03 X644.9737 Y0.0000 I0.0000 J2.0000
G01 Y51.1667
G01 Y62.1667
G01 Y107.8333
G01 Y118.8333
G01 Y170.0000
G03 X642.9737 Y172.0000 I-2.0000 J0.0000
G01 X548.4737
G01 X537.4737
G01 X448.4737
G01 X437.4737
G01 X342.9737
G03 X340.9737 Y170.0000 I0.0000 J-2.0000
G01 Y118.8333
G01 Y107.8333
G01 Y62.1667
G01 Y51.1667
G01 Y0.0000
G03 X342.9737 Y-2.0000 I2.0000 J0.0000
G01 X437.4737
G01 X448.4737
G01 X537.4737
G01 X548.4737
G01 Z-6.0000 F700
G01 X642.9737 F1400
G03 X644.9737 Y0.0000 I0.0000 J2.0000
G01 Y51.1667
G01 Y62.1667
G01 Y107.8333
G01 Y118.8333
G01 Y170.0000
G03 X642.9737 Y172.0000 I-2.0000 J0.0000
G01 X548.4737
G01 X537.4737
G01 X448.4737
G01 X437.4737
G01 X342.9737
G03 X340.9737 Y170.0000 I0.0000 J-2.0000
G01 Y118.8333
G01 Y107.8333
G01 Y62.1667
G01 Y51.1667
G01 Y0.0000
G03 X342.9737 Y-2.0000 I2.0000 J0.0000
G01 X437.4737
G01 X448.4737
G01 X537.4737
G01 X548.4737
G01 Z-8.0000 F700
G01 X642.9737 F1400
G03 X644.9737 Y0.0000 I0.0000 J2.0000
G01 Y51.1667
G01 Y62.1667
G01 Y107.8333
G01 Y118.8333
G01 Y170.0000
G03 X642.9737 Y172.0000 I-2.0000 J0.0000
G01 X548.4737
G01 X537.4737
G01 X448.4737
G01 X437.4737
G01 X342.9737
G03 X340.9737 Y170.0000 I0.0000 J-2.0000
G01 Y118.8333
G01 Y107.8333
G01 Y62.1667
G01 Y51.1667
G01 Y0.0000
G03 X342.9737 Y-2.0000 I2.0000 J0.0000
G01 X437.4737
G01 X448.4737
G01 X537.4737
G01 X548.4737
G01 Z-10.0000 F700
G01 X642.9737 F1400
G03 X644.9737 Y0.0000 I0.0000 J2.0000
G01 Y51.1667
G01 Y62.1667
G01 Y107.8333
G01 Y118.8333
G01 Y170.0000
G03 X642.9737 Y172.0000 I-2.0000 J0.0000
G01 X548.4737
G01 X537.4737
G01 X448.4737
G01 X437.4737
G01 X342.9737
G03 X340.9737 Y170.0000 I0.0000 J-2.0000
G01 Y118.8333
G01 Y107.8333
G01 Y62.1667
G01 Y51.1667
G01 Y0.0000
G03 X342.9737 Y-2.0000 I2.0000 J0.0000
G01 X437.4737
G01 X448.4737
G01 X537.4737
G01 X548.4737
G01 Z-12.0000 F700
G01 X642.9737 F1400
G03 X644.9737 Y0.0000 I0.0000 J2.0000
G01 Y51.1667
G01 Y62.1667
G01 Y107.8333
G01 Y118.8333
G01 Y170.0000
G03 X642.9737 Y172.0000 I-2.0000 J0.0000
G01 X548.4737
G01 X537.4737
G01 X448.4737
G01 X437.4737
G01 X342.9737
G03 X340.9737 Y170.0000 I0.0000 J-2.0000
G01 Y118.8333
G01 Y107.8333
G01 Y62.1667
G01 Y51.1667
G01 Y0.0000
G03 X342.9737 Y-2.0000 I2.0000 J0.0000
G01 X437.4737
G01 X448.4737
G01 X537.4737
G01 X548.4737
G01 Z-14.0000 F700
G01 X642.9737 F1400
G03 X644.9737 Y0.0000 I0.0000 J2.0000
G01 Y51.1667
G00 Z-13.5000
G01 Y62.1667
G01 Z-14.0000 F700
G01 Y107.8333 F1400
G00 Z-13.5000
G01 Y118.8333
G01 Z-14.0000 F700
G01 Y170.0000 F1400
G03 X642.9737 Y172.0000 I-2.0000 J0.0000
G01 X548.4737
G00 Z-13.5000
G01 X537.4737
G01 Z-14.0000 F700
G01 X448.4737 F1400
G00 Z-13.5000
G01 X437.4737
G01 Z-14.0000 F700
G01 X342.9737 F1400
G03 X340.9737 Y170.0000 I0.0000 J-2.0000
G01 Y118.8333
G00 Z-13.5000
G01 Y107.8333
G01 Z-14.0000 F700
G01 Y62.1667 F1400
G00 Z-13.5000
G01 Y51.1667
G01 Z-14.0000 F700
G01 Y0.0000 F1400
G03 X342.9737 Y-2.0000 I2.0000 J0.0000
G01 X437.4737
G00 Z-13.5000
G01 X448.4737
G01 Z-14.0000 F700
G01 X537.4737 F1400
G00 Z-13.5000
G01 X548.4737
G01 Z-14.0000 F700
G01 Z-16.0000
G01 X642.9737 F1400
G03 X644.9737 Y0.0000 I0.0000 J2.0000
G01 Y51.1667
G00 Z-13.5000
G01 Y62.1667
G01 Z-14.0000 F700
G01 Z-16.0000
G01 Y107.8333 F1400
G00 Z-13.5000
G01 Y118.8333
G01 Z-14.0000 F700
G01 Z-16.0000
G01 Y170.0000 F1400
G03 X642.9737 Y172.0000 I-2.0000 J0.0000
G01 X548.4737
G00 Z-13.5000
G01 X537.4737
G01 Z-14.0000 F700
G01 Z-16.0000
G01 X448.4737 F1400
G00 Z-13.5000
G01 X437.4737
G01 Z-14.0000 F700
G01 Z-16.0000
G01 X342.9737 F1400
G03 X340.9737 Y170.0000 I0.0000 J-2.0000
G01 Y118.8333
G00 Z-13.5000
G01 Y107.8333
G01 Z-14.0000 F700
G01 Z-16.0000
G01 Y62.1667 F1400
G00 Z-13.5000
G01 Y51.1667
G01 Z-14.0000 F700
G01 Z-16.0000
G01 Y0.0000 F1400
G03 X342.9737 Y-2.0000 I2.0000 J0.0000
G01 X437.4737
G00 Z-13.5000
G01 X448.4737
G01 Z-14.0000 F700
G01 Z-16.0000
G01 X537.4737 F1400
G00 Z-13.5000
G01 X548.4737
G00 Z-15.5000
G01 Z-16.0000 F700
G01 Z-18.0000
G01 X642.9737 F1400
G03 X644.9737 Y0.0000 I0.0000 J2.0000
G01 Y51.1667
G00 Z-13.5000
G01 Y62.1667
G00 Z-15.5000
G01 Z-16.0000 F700
G01 Z-18.0000
G01 Y107.8333 F1400
G00 Z-13.5000
G01 Y118.8333
G00 Z-15.5000
G01 Z-16.0000 F700
G01 Z-18.0000
G01 Y170.0000 F1400
G03 X642.9737 Y172.0000 I-2.0000 J0.0000
G01 X548.4737
G00 Z-13.5000
G01 X537.4737
G00 Z-15.5000
G01 Z-16.0000 F700
G01 Z-18.0000
G01 X448.4737 F1400
G00 Z-13.5000
G01 X437.4737
G00 Z-15.5000
G01 Z-16.0000 F700
G01 Z-18.0000
G01 X342.9737 F1400
G03 X340.9737 Y170.0000 I0.0000 J-2.0000
G01 Y118.8333
G00 Z-13.5000
G01 Y107.8333
G00 Z-15.5000
G01 Z-16.0000 F700
G01 Z-18.0000
G01 Y62.1667 F1400
G00 Z-13.5000
G01 Y51.1667
G00 Z-15.5000
G01 Z-16.0000 F700
G01 Z-18.0000
G01 Y0.0000 F1400
G03 X342.9737 Y-2.0000 I2.0000 J0.0000
G01 X437.4737
G00 Z-13.5000
G01 X448.4737
G00 Z-15.5000
G01 Z-16.0000 F700
G01 Z-18.0000
G01 X537.4737 F1400
G00 Z-13.5000
G01 X548.4737
G00 Z-17.5000
G01 Z-18.0000 F700
G01 Z-18.5000
G01 X642.9737 F1400
G03 X644.9737 Y0.0000 I0.0000 J2.0000
G01 Y51.1667
G00 Z-13.5000
G01 Y62.1667
G00 Z-17.5000
G01 Z-18.0000 F700
G01 Z-18.5000
G01 Y107.8333 F1400
G00 Z-13.5000
G01 Y118.8333
G00 Z-17.5000
G01 Z-18.0000 F700
G01 Z-18.5000
G01 Y170.0000 F1400
G03 X642.9737 Y172.0000 I-2.0000 J0.0000
G01 X548.4737
G00 Z-13.5000
G01 X537.4737
G00 Z-17.5000
G01 Z-18.0000 F700
G01 Z-18.5000
G01 X448.4737 F1400
G00 Z-13.5000
G01 X437.4737
G00 Z-17.5000
G01 Z-18.0000 F700
G01 Z-18.5000
G01 X342.9737 F1400
G03 X340.9737 Y170.0000 I0.0000 J-2.0000
G01 Y118.8333
G00 Z-13.5000
G01 Y107.8333
G00 Z-17.5000
G01 Z-18.0000 F700
G01 Z-18.5000
G01 Y62.1667 F1400
G00 Z-13.5000
G01 Y51.1667
G00 Z-17.5000
G01 Z-18.0000 F700
G01 Z-18.5000
G01 Y0.0000 F1400
G03 X342.9737 Y-2.0000 I2.0000 J0.0000
G01 X437.4737
G00 Z-13.5000
G01 X448.4737
G00 Z-17.5000
G01 Z-18.0000 F700
G01 Z-18.5000
G01 X537.4737 F1400
G00 Z-13.5000
G01 X548.4737
G00 Z5.0000
G00 X0.0000 Y0.0000

M05
